!!!OTL: "Liebesstolz" HALB UND HALB HAST MI GERN
!!!ARE: Europa, Mitteleuropa, Oesterreich
!!!SCT: Z1232
!!!YEM: Copyright 1995, estate of Helmut Schaffrath.
**kern
*ICvox
*Ivox
*M3/4
*k[]
*C:
=1
{4g
4g
4a
=2
4.g
8f
4e}
=3
{4g
4g
4a
=4
2g}
{8g
8g
=5
4a
4f
4f
=6
4f
8a
8c
4a}
=7
{4g
4e
4d
=8
2e}
{8g
8e
=9
4f
4dd
4dd
=10
2dd}
{8f
8d
=11
4e
4cc
4cc
=12
2cc}
{8g
8e
=13
4f
4dd
4dd
=14
2dd}
{8cc
8b
=15
4cc
4cc
8ee
8dd
=16
2.cc}
==
!!!AGN: Liebes - Lied
!! Die letzten 8 Takte werden auf die Silbe 'la' gesungen.
!!!ONB: ESAC (Essen Associative Code) Database: ZUCCAL
!!!AMT: simple triple
!!!AIN: vox
!!!EED: Helmut Schaffrath
!!!EEV: 1.0
*-
